outputs/icons/charts/chart_bubble_round.svg

<svg xmlns="http://www.w3.org/2000/svg" width="1200" height="1200" fill="none"><path fill="#000" d="M360 880c88.365 0 160-71.635 160-160 0-88.37-71.635-160-160-160s-160 71.63-160 160c0 88.365 71.635 160 160 160M740 1000c55.23 0 100-44.77 100-100s-44.77-100-100-100c-55.225 0-100 44.77-100 100s44.775 100 100 100M759.995 680c132.55 0 240-107.45 240-240 0-132.548-107.45-240-240-240s-240 107.452-240 240c0 132.55 107.45 240 240 240"/></svg>

<svg width="1200" height="1200" viewBox="0 0 1200 1200" fill="none" xmlns="http://www.w3.org/2000/svg"><path d="M360 880C448.365 880 520 808.365 520 720C520 631.63 448.365 560 360 560C271.635 560 200 631.63 200 720C200 808.365 271.635 880 360 880Z" fill="black"/><path d="M740 1000C795.23 1000 840 955.23 840 900C840 844.77 795.23 800 740 800C684.775 800 640 844.77 640 900C640 955.23 684.775 1000 740 1000Z" fill="black"/><path d="M759.995 680C892.545 680 999.995 572.55 999.995 440C999.995 307.452 892.545 200 759.995 200C627.445 200 519.995 307.452 519.995 440C519.995 572.55 627.445 680 759.995 680Z" fill="black"/></svg>
